public/column-spacing.svg

<svg viewBox="0 0 32 32" xmlns="http://www.w3.org/2000/svg" xml:space="preserve" fill-rule="evenodd" clip-rule="evenodd" stroke-linejoin="round" stroke-miterlimit="2"><path d="M6 16v15.22c0 .43-.35.78-.78.78H.78c-.43 0-.78-.35-.78-.78V.78C0 .35.35 0 .78 0h4.44c.43 0 .78.35.78.78v15.134c.01-.258.109-.506.282-.701l7.029-7.873q.225-.338.675-.338t.731.338q.282.336.282.786v15.748c.011.289-.09.57-.282.786a.9.9 0 0 1-.731.338q-.393 0-.675-.338l-7.029-7.872A1.2 1.2 0 0 1 6 16m20 0q0 .45-.282.788l-7.029 7.872q-.282.338-.675.338a.9.9 0 0 1-.731-.338 1.12 1.12 0 0 1-.282-.786V8.126q0-.45.282-.786a.9.9 0 0 1 .731-.338q.45 0 .675.338l7.029 7.873c.173.195.272.443.282.701V.78c0-.43.35-.78.78-.78h4.44c.43 0 .78.35.78.78v30.44c0 .43-.35.78-.78.78h-4.44c-.43 0-.78-.35-.78-.78z"/></svg>

<?xml version="1.0" encoding="UTF-8" standalone="no"?>
<!DOCTYPE svg PUBLIC "-//W3C//DTD SVG 1.1//EN" "http://www.w3.org/Graphics/SVG/1.1/DTD/svg11.dtd">
<svg width="100%" height="100%" viewBox="0 0 32 32" version="1.1" xmlns="http://www.w3.org/2000/svg" xmlns:xlink="http://www.w3.org/1999/xlink" xml:space="preserve" xmlns:serif="http://www.serif.com/" style="fill-rule:evenodd;clip-rule:evenodd;stroke-linejoin:round;stroke-miterlimit:2;">
    <path d="M6,16L6,31.22C6,31.65 5.65,32 5.22,32L0.78,32C0.35,32 -0,31.65 -0,31.22L-0,0.78C-0,0.35 0.35,-0 0.78,-0L5.22,-0C5.65,-0 6,0.35 6,0.78L6,15.914C6.01,15.656 6.109,15.408 6.282,15.213L13.311,7.34C13.461,7.114 13.686,7.002 13.986,7.002C14.286,7.002 14.53,7.114 14.717,7.34C14.905,7.564 14.999,7.826 14.999,8.126L14.999,23.874C15.01,24.163 14.909,24.444 14.717,24.66C14.53,24.885 14.286,24.998 13.986,24.998C13.724,24.998 13.499,24.885 13.311,24.66L6.282,16.788C6.094,16.562 6,16.3 6,16ZM26,16C26,16.3 25.906,16.562 25.718,16.788L18.689,24.66C18.501,24.885 18.276,24.998 18.014,24.998C17.714,24.998 17.47,24.885 17.283,24.66C17.091,24.444 16.99,24.163 17.001,23.874L17.001,8.126C17.001,7.826 17.095,7.564 17.283,7.34C17.47,7.114 17.714,7.002 18.014,7.002C18.314,7.002 18.539,7.114 18.689,7.34L25.718,15.213C25.891,15.408 25.99,15.656 26,15.914L26,0.78C26,0.35 26.35,-0 26.78,-0L31.22,-0C31.65,-0 32,0.35 32,0.78L32,31.22C32,31.65 31.65,32 31.22,32L26.78,32C26.35,32 26,31.65 26,31.22L26,16Z"/>
</svg>
